Obsidian/actions/16s/twitter-mentions.svg

<svg height="16" viewBox="0 0 16 16" width="16" xmlns="http://www.w3.org/2000/svg"><path d="m10.634766.99609375c-.460909.01541675-.8889348.28791565-1.0996098.72070315-1.9291-.11657-3.7768374 1.040725-4.4609374 2.953125-.60902 1.7322-1.8396625 3.9701375-2.4765626 4.0859375-.12871.0726-.2370856.1890837-.2910156.3398437-.11898.33261.0523056.6973463.3847656.8164063l9.3007818 3.3300786c.33242.119059.695463-.052186.814453-.384766.0539-.15076.043634-.311379-.009766-.449219-.4187-.49391.049844-3.0050686.677734-4.7304686.68416-1.9124-.011372-3.9804344-1.576171-5.1152344.148869-.62435-.180889-1.2708875-.798829-1.4921875-.154485-.05533-.311207-.07935766-.464843-.07421875zm-3.8906254 11.72070325c-.29654.82896.2675088 1.790384 1.2617188 2.146484.99416.35606 2.0413906-.028462 2.3378906-.857422z" fill="#bebebe"/></svg>

<svg xmlns="http://www.w3.org/2000/svg" width="16" height="16" viewBox="0 0 16 16">
 <defs>
  <style id="current-color-scheme" type="text/css">
   .ColorScheme-Text { color:#bebebe; } .ColorScheme-Highlight { color:#4285f4; }
  </style>
 </defs>
 <path style="fill:currentColor" class="ColorScheme-Text" d="M 10.634766 0.99609375 C 10.173857 1.0115105 9.7458312 1.2840094 9.5351562 1.7167969 C 7.6060562 1.6002269 5.7583188 2.7575219 5.0742188 4.6699219 C 4.4651988 6.4021219 3.2345563 8.6400594 2.5976562 8.7558594 C 2.4689462 8.8284594 2.3605706 8.9449431 2.3066406 9.0957031 C 2.1876606 9.4283131 2.3589462 9.7930494 2.6914062 9.9121094 L 11.992188 13.242188 C 12.324608 13.361247 12.687651 13.190002 12.806641 12.857422 C 12.860541 12.706662 12.850275 12.546043 12.796875 12.408203 C 12.378175 11.914293 12.846719 9.4031344 13.474609 7.6777344 C 14.158769 5.7653344 13.463237 3.6973 11.898438 2.5625 C 12.047307 1.93815 11.717549 1.2916125 11.099609 1.0703125 C 10.945124 1.0149825 10.788402 0.99095484 10.634766 0.99609375 z M 6.7441406 12.716797 C 6.4476006 13.545757 7.0116494 14.507181 8.0058594 14.863281 C 9.0000194 15.219341 10.04725 14.834819 10.34375 14.005859 L 6.7441406 12.716797 z"/>
</svg>
